X:094
T: Cathleen Asthore
T: Caitl\'in A St\'or
N: O'Farrell's Pocket Companion v.2 (Sky ed. p.54-55)
N: Irish = "Kathleen [My] Treasure"
M: 3/4
L: 1/8
Q: 200
K: D
B2 E2 F2|BABcdB|A2 D2 F2|A2 D2 F2|
B2 E2 E>F|EDEFGA|BABcdB|BAGFED :|
B2 e2 e2|e4 fe|d2 BcdB|BAGFED|
B2 e2 e2|e4 fe|d2 B2 {AB}c2|d4 e2|
fedefd|edcdec|d2 BcdB|BAGFED |
B2 E2 F2|BABcdB|BAGFED |F2 E2 E2||
